X:1
T:На сопках Маньчжурии
T:На сопках Маньчжурии
T:"On the Hills of Manchuria
T:Ilya Shatrov
C:Ilya Shatrov
%%score 1 2 3
L:1/8
Q:1/4=188
M:3/4
K:Ab
V:1 treble transpose=-2 nm="B♭ Trumpet" snm="B♭ Tpt."
V:2 treble transpose=-7 nm="Horn in F" snm="F Hn."
V:3 bass nm="Trombone" snm="Tbn."
V:1
[K:Bb]!pp! G2 .B2 .B2 | B2 .B2 .B2 | A2 .A2 .A2 | D2 .A2 .A2 | A2 .d2 .d2 | D2 .A2 .A2 | %6
 G2 .B2 .B2 | D2 .B2 .B2 | G2 .B2 .B2 | B2 .B2 .B2 | c2 .c2 .c2 | E2 .c2 .c2 | D2 .B2 .B2 | %13
 D2 .d2 .d2 |1 .G2 .D2 .B,2 | .G,2 z2 z2 ::2 .G2 .D2 .B,2 | .G,2!mf!({/e} d^c de) || d2 z A A2 | %19
 z2 .B2 .c2 | d6- | d2({/g} f=e fg) | f2 z c c2 | z2 d2 e2 | f6- | f2 f2 ^f2 | .g2 z d d2 | %27
 (3((ded) ^c2 d2 | .f2) z2 .e2 |1 z2 (B2 c2) | (d2 c2 B2) | (A4 c2) | B6- | B2({/e} d^c de) :|2 %34
 z2 (f2 e2) | (b2 a2 g2) | (^f4 a2) | g6- | g2 z2 z2 ||!pp! G2 .B2 .B2 | B2 .B2 .B2 | A2 .A2 .A2 | %42
 D2 .A2 .A2 | A2 .d2 .d2 | D2 .A2 .A2 | G2 .B2 .B2 | D2 .B2 .B2 | G2 .B2 .B2 | B2 .B2 .B2 | %49
 c2 .c2 .c2 | E2 .c2 .c2 | D2 .B2 .B2 | D2 .d2 .d2 | .G2 .D2 .B,2 | .G,2!f! (g2 ^f2) |: (g4 _a2 | %56
 g4 f2) | (f4 e2) | (e2 d2 c2) | (f4 g2) | (f4 e2) | (e2 d2 ^c2 | d6) | (g2 B2 d2) | g2 b3 a | %65
({/a} g2 f2 e2) | (g4 e2) | (B2 d2 c2) | (A4 B2) |1 G6- | G2 (g2 ^f2) :|2 %71
[Q:1/4=160] G6-[Q:1/4=140][Q:1/4=120] |[Q:1/4=120] G2 z2 z2 |] %73
V:2
[K:Eb]!mf! G6- | G2 E2 F2 | G6- | G6 | (F2 G2 =B2) | (e4 d2) | c6- | c6 | (G2 c2 e2 | =B4 c2) | %10
 (d2 c2 A2) | (d4 c2) | (G2 c2 d2) | (e4 d2) |1 c6- | c2 z2 z2 ::2 c6- | c2 z2 z2 || %18
!p! G2 z =B B2 | G2 d2 d2 | c2 G2 E2 | C2 E2 E2 | B2 z d d2 | B2 A2 A2 | E2 B2 G2 | E2 z2 d2 | %26
 c2 e2 e2 | e2 e2 e2 | F2 F2 F2 |1 A2 B2 B2 | G2 G2 G2 | G2 G2 G2 | c2 G2 E2 | C2 z2 z2 :|2 %34
 A2 B2 B2 | G2 G2 G2 | G2 G2 G2 | c2 G2 E2 | C2 z2 z2 ||!mf! G6- | G2 E2 F2 | G6- | G6 | %43
 (F2 G2 =B2) | (e4 d2) | c6- | c6 | (G2 c2 e2 | =B4 c2) | (d2 c2 A2) | (d4 c2) | (G2 c2 d2) | %52
 (e4 d2) | c6- | c2 z2 z2 |:!mp! C2 E2 E2 | E2 E2 E2 | F2 c2 c2 | F2 c2 c2 | B2 A2 A2 | D2 A2 A2 | %61
 E2 G2 G2 | E2 z2 D2 | C2 E2 E2 | E2 E2 E2 | F2 c2 c2 | A2 c2 c2 | G2 E2 E2 | G2 F2 F2 |1 %69
 c2 G2 E2 | C2 z2 z2 :|2 c2 G2 E2 | C2 z2 z2 |] %73
V:3
!p! F,,2 .F,2 .F,2 | A,,2 .F,2 .F,2 | G,,2 .=E,2 .E,2 | C,2 .=E,2 .E,2 | G,,2 .=E,2 .E,2 | %5
 C,2 .=E,2 .E,2 | F,,2 .F,2 .F,2 | C,2 .F,2 .F,2 | F,,2 .F,2 .F,2 | A,,2 .F,2 .F,2 | %10
 B,,2 .F,2 .F,2 | D,2 .F,2 .F,2 | C,2 .F,2 .F,2 | C,2 .=E,2 .E,2 |1 .F,2 .C,2 .A,,2 | %15
 .F,,2 z2 z2 ::2 .F,2 .C,2 .A,,2 | .F,,2 z2 z2 ||!p! C,2 z C, C,2 | C,2 =E,2 E,2 | F,2 C,2 A,,2 | %21
 F,,2 F,2 F,2 | E,2 z E, E,2 | E,2 G,2 G,2 | A,,2 E,2 C,2 | A,,2 z2 G,,2 | F,,2 F,2 F,2 | %27
 A,,2 F,2 F,2 | B,,2 F,2 F,2 |1 D,2 F,2 F,2 | C,2 F,2 F,2 | C,2 =E,2 E,2 | F,2 C,2 A,,2 | %33
 F,,2 z2 z2 :|2 D,2 F,2 F,2 | C,2 F,2 F,2 | C,2 =E,2 E,2 | F,2 C,2 A,,2 | F,,2 z2 z2 || %39
!p! F,,2 .F,2 .F,2 | A,,2 .F,2 .F,2 | G,,2 .=E,2 .E,2 | C,2 .=E,2 .E,2 | G,,2 .=E,2 .E,2 | %44
 C,2 .=E,2 .E,2 | F,,2 .F,2 .F,2 | C,2 .F,2 .F,2 | F,,2 .F,2 .F,2 | A,,2 .F,2 .F,2 | %49
 B,,2 .F,2 .F,2 | D,2 .F,2 .F,2 | C,2 .F,2 .F,2 | C,2 .=E,2 .E,2 | .F,2 .C,2 .A,,2 | .F,,2 z2 z2 |: %55
!mp! F,,2 F,2 F,2 | A,,2 F,2 F,2 | B,,2 F,2 F,2 | B,,2 F,2 F,2 | E,2 G,2 G,2 | G,,2 G,2 G,2 | %61
 A,,2 A,2 A,2 | A,,2 z2 G,,2 | F,,2 F,2 F,2 | A,,2 F,2 F,2 | B,,2 F,2 F,2 | D,2 F,2 F,2 | %67
 C,2 F,2 F,2 | C,2 =E,2 E,2 |1 F,2 C,2 A,,2 | F,,2 z2 z2 :|2 F,2 C,2 A,,2 | F,,2 z2 z2 |] %73

